Origami/64x64/apps/otter-browser.svg

<svg width="64" height="64" version="1" xmlns="http://www.w3.org/2000/svg">
 <path d="m32 5c-15.512 0-28 12.488-28 28s12.488 28 28 28 28-12.488 28-28-12.488-28-28-28z" style="opacity:.2"/>
 <path d="m32 4c-15.512 0-28 12.488-28 28s12.488 28 28 28 28-12.488 28-28-12.488-28-28-28z" style="fill:#3b94f7"/>
 <path d="m32.000343 16.999998a12 16 0 0 1 12 16.000001 12 16 0 0 1 -12 16.000001 12 16 0 0 1 -12 -16.000001 12 16 0 0 1 12 -16.000001z" style="opacity:.2"/>
 <path d="m32.000343 16.000398a12 16 0 0 1 12 16.000001 12 16 0 0 1 -12 16.000001 12 16 0 0 1 -12 -16.000001 12 16 0 0 1 12 -16.000001z" style="fill:#ffffff"/>
 <path d="m32 4c-15.512 0-28 12.488-28 28 0 0.167704 0.0107645 0.333014 0.0136719 0.5 0.2660088-15.278522 12.642032-27.5 27.986328-27.5s27.720319 12.221478 27.986328 27.5c0.002907-0.166986 0.013672-0.332296 0.013672-0.5 0-15.512-12.488-28-28-28z" style="fill:#ffffff;opacity:.2"/>
</svg>

<svg xmlns="http://www.w3.org/2000/svg" width="64" height="64" version="1">
 <path style="opacity:0.2" d="M 32,5 C 16.488,5 4,17.488 4,33 4,48.512 16.488,61 32,61 47.512,61 60,48.512 60,33 60,17.488 47.512,5 32,5 Z"/>
 <path style="fill:#3b94f7" d="M 32,4 C 16.488,4 4,16.488 4,32 4,47.512 16.488,60 32,60 47.512,60 60,47.512 60,32 60,16.488 47.512,4 32,4 Z"/>
 <path style="opacity:0.2" d="m 32.000343,16.999998 a 12,16 0 0 1 12,16.000001 12,16 0 0 1 -12,16.000001 12,16 0 0 1 -12,-16.000001 12,16 0 0 1 12,-16.000001 z"/>
 <path style="fill:#ffffff" d="m 32.000343,16.000398 a 12,16 0 0 1 12,16.000001 12,16 0 0 1 -12,16.000001 12,16 0 0 1 -12,-16.000001 12,16 0 0 1 12,-16.000001 z"/>
 <path style="fill:#ffffff;opacity:0.2" d="M 32 4 C 16.488 4 4 16.488 4 32 C 4 32.167704 4.0107645 32.333014 4.0136719 32.5 C 4.2796807 17.221478 16.655704 5 32 5 C 47.344296 5 59.720319 17.221478 59.986328 32.5 C 59.989235 32.333014 60 32.167704 60 32 C 60 16.488 47.512 4 32 4 z"/>
</svg>
